Yaru++/places/symbolic/folder-publicshare-symbolic.svg

<svg height="16" width="16" xmlns="http://www.w3.org/2000/svg">
  <path d="m15 2.5c0-1.375-1.125-2.5-2.5-2.5a2.508 2.508 0 0 0 -2.5 2.5c0 1.375 1.125 2.5 2.5 2.5s2.5-1.125 2.5-2.5zm0 10c0-1.375-1.125-2.5-2.5-2.5a2.508 2.508 0 0 0 -2.5 2.5c0 1.375 1.125 2.5 2.5 2.5s2.5-1.125 2.5-2.5zm-1-10c0 .834-.666 1.5-1.5 1.5s-1.5-.666-1.5-1.5.666-1.5 1.5-1.5 1.5.666 1.5 1.5zm0 10c0 .834-.666 1.5-1.5 1.5s-1.5-.666-1.5-1.5.666-1.5 1.5-1.5 1.5.666 1.5 1.5zm-4.266-7.89a3.495 3.495 0 0 1 -.494-.872l-3.853 2.143a2.487 2.487 0 0 0 -1.887-.881 2.508 2.508 0 0 0 -2.5 2.5c0 1.375 1.125 2.5 2.5 2.5.755 0 1.427-.347 1.887-.88l3.853 2.142c.122-.316.29-.606.494-.871l-3.861-2.145c.075-.236.127-.485.127-.746s-.052-.509-.127-.746zm-4.734 2.89c0 .834-.666 1.5-1.5 1.5s-1.5-.666-1.5-1.5.666-1.5 1.5-1.5 1.5.666 1.5 1.5z" fill="#808080"/>
</svg>

<svg height="16" width="16" xmlns="http://www.w3.org/2000/svg">
    <path d="M15 2.5C15 1.125 13.875 0 12.5 0A2.508 2.508 0 0 0 10 2.5C10 3.875 11.125 5 12.5 5S15 3.875 15 2.5zm0 10c0-1.375-1.125-2.5-2.5-2.5a2.508 2.508 0 0 0-2.5 2.5c0 1.375 1.125 2.5 2.5 2.5s2.5-1.125 2.5-2.5zm-1-10c0 .834-.666 1.5-1.5 1.5S11 3.334 11 2.5 11.666 1 12.5 1s1.5.666 1.5 1.5zm0 10c0 .834-.666 1.5-1.5 1.5s-1.5-.666-1.5-1.5.666-1.5 1.5-1.5 1.5.666 1.5 1.5zM9.734 4.61a3.495 3.495 0 0 1-.494-.872L5.387 5.881A2.487 2.487 0 0 0 3.5 5 2.508 2.508 0 0 0 1 7.5C1 8.875 2.125 10 3.5 10c.755 0 1.427-.347 1.887-.88l3.853 2.142c.122-.316.29-.606.494-.871L5.873 8.246C5.948 8.01 6 7.761 6 7.5s-.052-.509-.127-.746zM5 7.5C5 8.334 4.334 9 3.5 9S2 8.334 2 7.5 2.666 6 3.5 6 5 6.666 5 7.5z" style="line-height:normal;font-variant-ligatures:normal;font-variant-position:normal;font-variant-caps:normal;font-variant-numeric:normal;font-variant-alternates:normal;font-feature-settings:normal;text-indent:0;text-align:start;text-decoration-line:none;text-decoration-style:solid;text-decoration-color:#000;text-transform:none;text-orientation:mixed;shape-padding:0;isolation:auto;mix-blend-mode:normal" color="#000" font-weight="400" font-family="sans-serif" white-space="normal" overflow="visible" fill="gray"/>
</svg>
